icons/brand/icon_logo-alfabank_s_color.svg

<?xml version="1.0" encoding="UTF-8" standalone="no"?>
<svg width="18px" height="18px" viewBox="0 0 18 18" version="1.1" xmlns="http://www.w3.org/2000/svg" xmlns:xlink="http://www.w3.org/1999/xlink">
    <!-- Generator: Sketch 47.1 (45422) - http://www.bohemiancoding.com/sketch -->
    <title>icon_logo-alfabank_s_color</title>
    <desc>Created with Sketch.</desc>
    <defs></defs>
    <g id="Page-1" stroke="none" stroke-width="1" fill="none" fill-rule="evenodd">
        <g id="icon_logo-alfabank_s_color">
            <g>
                <polygon id="_bg_" points="0 0 18 0 18 18 0 18"></polygon>
                <rect id="Rectangle-path-Copy" fill="#EF3124" fill-rule="nonzero" x="0" y="0" width="18" height="18" rx="9"></rect>
                <path d="M9.89512008,5.57100969 C9.95879848,5.74839951 11.4315888,9.92206351 11.475254,10.0471461 C11.4879897,10.0817143 11.4798024,10.1394797 11.4274952,10.1599478 C11.3756428,10.1804159 10.6101375,10.4883464 10.5678369,10.5047208 C10.5255362,10.5215501 10.4777774,10.4969885 10.4623127,10.4533233 C10.4463931,10.4101129 10.1098072,9.38852952 10.0738744,9.28664408 L7.96202593,9.27754717 L7.53992913,10.4533233 C7.52491922,10.4951691 7.47943466,10.5233695 7.43440493,10.5047208 L6.57520144,10.1599478 C6.53152515,10.1413101 6.51012408,10.0917076 6.52653295,10.0471461 C6.58111443,9.89067915 8.03116247,5.78433232 8.10575716,5.57100969 C8.24903355,5.15710012 8.43415575,4.73000002 9.00089347,4.73000002 C9.56808604,4.73000002 9.74638555,5.15027743 9.89512008,5.57100969 L9.89512008,5.57100969 Z M6.35460128,12.1071422 C6.30775217,12.1071422 6.26999998,12.1476234 6.26999998,12.1972016 L6.26999998,13.1942234 C6.26999998,13.2442564 6.30775217,13.283828 6.35460128,13.283828 L11.6444566,13.283828 C11.6908508,13.283828 11.7281482,13.2442564 11.7281482,13.1942234 L11.7281482,12.1972016 C11.7281482,12.1471686 11.6908508,12.107597 11.6444566,12.107597 L6.35460128,12.107597 L6.35460128,12.1071422 Z M8.25312716,8.34511352 L9.7409274,8.34511352 L9.07639785,6.10272429 L8.90310165,6.10272429 L8.25312716,8.34511352 L8.25312716,8.34511352 Z" id="Shape-Copy" fill="#FFFFFF" fill-rule="nonzero"></path>
            </g>
        </g>
    </g>
</svg>

<svg width="18" height="18" viewBox="0 0 18 18" xmlns="http://www.w3.org/2000/svg">
  <g fill="none" fill-rule="evenodd">
    <path d="M0 0h18v18H0"/>
    <rect fill="#EF3124" fill-rule="nonzero" width="18" height="18" rx="9"/>
    <path d="M9.895 5.57c.064.178 1.537 4.352 1.58 4.477.013.035.005.092-.048.113l-.86.345c-.04.017-.09-.008-.105-.052-.016-.043-.352-1.064-.388-1.166l-2.112-.01-.422 1.176c-.015.042-.06.07-.106.052l-.86-.345c-.042-.02-.064-.068-.047-.113.054-.156 1.504-4.263 1.58-4.476.142-.413.327-.84.894-.84.568 0 .746.42.895.84zm-3.54 6.537c-.047 0-.085.04-.085.09v.997c0 .05.038.09.085.09h5.29c.046 0 .083-.04.083-.09v-.997c0-.05-.037-.09-.084-.09h-5.29zm1.898-3.762H9.74l-.664-2.242h-.173l-.65 2.242z" fill="#FFF" fill-rule="nonzero"/>
  </g>
</svg>
